X: 17
T: Foxhunter, The
Z: Juan Almaraz
S: https://thesession.org/tunes/482#setting46697
R: slip jig
M: 9/8
L: 1/8
K: Dmaj
M:3/4
|:B2BA ^GA|BE EF GA|B/c/d BA FB|AF DF ED:|
|:f2 ff g2|f2ff ed|d~f3 gb|af df ed:|

